src/OnboardingSPA/static/icons/publish.svg

<svg fill="none" height="33" viewBox="0 0 30 33" width="30" xmlns="http://www.w3.org/2000/svg"><path clip-rule="evenodd" d="m.315918 3.13607v-2.668297h29.026082v2.668297zm-.000007 4.44742h16.327189v2.66831h-16.327189zm16.327189 7.11511h-14.51306c-1.08848 0-1.814129.7116-1.814129 1.7789v14.7645c0 .5337.362827 1.2452 1.088479 1.4231.18141.1779.36283.1779.54424.1779.36283 0 .90707-.1779 1.08848-.5336l3.26544-3.202h10.34055c1.0885 0 1.8141-.7115 1.8141-1.7789v-10.851c0-1.0673-.7256-1.7789-1.8141-1.7789zm-11.42904 11.7406h10.52194v-9.0722h-12.6989v11.2068z" fill="#fff" fill-rule="evenodd"/></svg>

<svg width="30" height="33" viewBox="0 0 30 33" fill="none" xmlns="http://www.w3.org/2000/svg">
<path fill-rule="evenodd" clip-rule="evenodd" d="M0.315918 3.13607V0.467773H29.342V3.13607H0.315918ZM0.315911 7.58349H16.6431V10.2518H0.315911V7.58349ZM16.6431 14.6986H2.13004C1.04156 14.6986 0.315911 15.4102 0.315911 16.4775V31.242C0.315911 31.7757 0.678738 32.4872 1.40439 32.6651C1.5858 32.843 1.76722 32.843 1.94863 32.843C2.31146 32.843 2.8557 32.6651 3.03711 32.3094L6.30255 29.1074H16.6431C17.7316 29.1074 18.4572 28.3959 18.4572 27.3285V16.4775C18.4572 15.4102 17.7316 14.6986 16.6431 14.6986ZM5.21406 26.4392H15.736V17.367H3.0371V28.5738L5.21406 26.4392Z" fill="white"/>
</svg>
